X:29
T:Loge & Vivvy's Schottiche
M:4/4
L:1/8
S:Charlie Batchelor
R:Schottiche
A:Bingara, New South Wales, Australia
H:Collected by Chris Sullivan and Mark Rummery
Z:Transcribed into ABC by John Furlonger
K:D
A>G|F2 A>d (3faf e>d|B<G D>G B2 (3BcB|A2 c>B A>G F>E|D>F A>d f2 f2|!
F2 A>d (3faf e>d|B<G D>G B2 (3BcB|A2 c>B A>G F>E|D2 d>d d2 A>A|!
A2 A>A A>f e>d|B2 B>B B2 e>d|c2 c>c cc|d2 f>e f2 A>A|!
A2 A>A A>f e>d|B2 B>B B2 e>d|c2 c>c cc|d2 (3ded d2||
